jcchess/images/pieceset2/kingW.svg

<?xml version="1.0" encoding="UTF-8" standalone="no"?>
<svg
   xmlns:dc="http://purl.org/dc/elements/1.1/"
   xmlns:cc="http://creativecommons.org/ns#"
   xmlns:rdf="http://www.w3.org/1999/02/22-rdf-syntax-ns#"
   xmlns:svg="http://www.w3.org/2000/svg"
   xmlns="http://www.w3.org/2000/svg"
   xmlns:sodipodi="http://sodipodi.sourceforge.net/DTD/sodipodi-0.dtd"
   xmlns:inkscape="http://www.inkscape.org/namespaces/inkscape"
   version="1.1"
   width="45"
   height="45"
   id="svg2"
   inkscape:version="0.91 r13725"
   sodipodi:docname="kingW20.svg">
  <metadata
     id="metadata24">
    <rdf:RDF>
      <cc:Work
         rdf:about="">
        <dc:format>image/svg+xml</dc:format>
        <dc:type
           rdf:resource="http://purl.org/dc/dcmitype/StillImage" />
        <dc:title></dc:title>
      </cc:Work>
    </rdf:RDF>
  </metadata>
  <defs
     id="defs22" />
  <sodipodi:namedview
     pagecolor="#ffffff"
     bordercolor="#666666"
     borderopacity="1"
     objecttolerance="10"
     gridtolerance="10"
     guidetolerance="10"
     inkscape:pageopacity="0"
     inkscape:pageshadow="2"
     inkscape:window-width="1186"
     inkscape:window-height="649"
     id="namedview20"
     showgrid="false"
     inkscape:zoom="5.2444444"
     inkscape:cx="-12.298729"
     inkscape:cy="22.5"
     inkscape:window-x="337"
     inkscape:window-y="109"
     inkscape:window-maximized="0"
     inkscape:current-layer="svg2" />
  <g
     style="fill:none;fill-opacity:1;fill-rule:evenodd;stroke:#000000;stroke-width:1.5;stroke-linecap:round;stroke-linejoin:round;stroke-miterlimit:4;stroke-dasharray:none;stroke-opacity:1"
     id="g4"
     transform="matrix(1.2,0,0,1.2,-4.4937186,-5.5614318)">
    <path
       d="M 22.5,11.63 22.5,6"
       style="fill:none;stroke:#000000;stroke-linejoin:miter"
       id="path6"
       inkscape:connector-curvature="0" />
    <path
       d="m 20,8 5,0"
       style="fill:none;stroke:#000000;stroke-linejoin:miter"
       id="path8"
       inkscape:connector-curvature="0" />
    <path
       d="m 22.5,25 c 0,0 4.5,-7.5 3,-10.5 0,0 -1,-2.5 -3,-2.5 -2,0 -3,2.5 -3,2.5 -1.5,3 3,10.5 3,10.5"
       style="fill:#ffffff;stroke:#000000;stroke-linecap:butt;stroke-linejoin:miter"
       id="path10"
       inkscape:connector-curvature="0" />
    <path
       d="m 11.5,37 c 5.5,3.5 15.5,3.5 21,0 l 0,-7 c 0,0 9,-4.5 6,-10.5 -4,-6.5 -13.5,-3.5 -16,4 l 0,3.5 0,-3.5 C 19,16 9.5,13 6.5,19.5 c -3,6 5,10 5,10 l 0,7.5 z"
       style="fill:#ffffff;stroke:#000000"
       id="path12"
       inkscape:connector-curvature="0" />
    <path
       d="M 11.5,30 C 17,27 27,27 32.5,30"
       style="fill:none;stroke:#000000"
       id="path14"
       inkscape:connector-curvature="0" />
    <path
       d="m 11.5,33.5 c 5.5,-3 15.5,-3 21,0"
       style="fill:none;stroke:#000000"
       id="path16"
       inkscape:connector-curvature="0" />
    <path
       d="M 11.5,37 C 17,34 27,34 32.5,37"
       style="fill:none;stroke:#000000"
       id="path18"
       inkscape:connector-curvature="0" />
  </g>
</svg>

<?xml version="1.0" encoding="UTF-8" standalone="no"?>
<!DOCTYPE svg PUBLIC "-//W3C//DTD SVG 1.1//EN" "http://www.w3.org/Graphics/SVG/1.1/DTD/svg11.dtd">
<svg xmlns="http://www.w3.org/2000/svg" version="1.1" width="45" height="45">
  <g style="fill:none; fill-opacity:1; fill-rule:evenodd; stroke:#000000; stroke-width:1.5; stroke-linecap:round;stroke-linejoin:round;stroke-miterlimit:4; stroke-dasharray:none; stroke-opacity:1;">
    <path
      d="M 22.5,11.63 L 22.5,6"
      style="fill:none; stroke:#000000; stroke-linejoin:miter;" />
    <path
      d="M 20,8 L 25,8"
      style="fill:none; stroke:#000000; stroke-linejoin:miter;" />
    <path
      d="M 22.5,25 C 22.5,25 27,17.5 25.5,14.5 C 25.5,14.5 24.5,12 22.5,12 C 20.5,12 19.5,14.5 19.5,14.5 C 18,17.5 22.5,25 22.5,25"
      style="fill:#ffffff; stroke:#000000; stroke-linecap:butt; stroke-linejoin:miter;" />
    <path
      d="M 11.5,37 C 17,40.5 27,40.5 32.5,37 L 32.5,30 C 32.5,30 41.5,25.5 38.5,19.5 C 34.5,13 25,16 22.5,23.5 L 22.5,27 L 22.5,23.5 C 19,16 9.5,13 6.5,19.5 C 3.5,25.5 11.5,29.5 11.5,29.5 L 11.5,37 z "
      style="fill:#ffffff; stroke:#000000;" />
    <path
      d="M 11.5,30 C 17,27 27,27 32.5,30"
      style="fill:none; stroke:#000000;" />
    <path
      d="M 11.5,33.5 C 17,30.5 27,30.5 32.5,33.5"
      style="fill:none; stroke:#000000;" />
    <path
      d="M 11.5,37 C 17,34 27,34 32.5,37"
      style="fill:none; stroke:#000000;" />
  </g>
</svg>
